!!!!SEGMENT: pl-kk--kk-i-382--024-002_anonim--nro-9-gloria.krn
!!!cenid: 18xx:1501
!!!COM: Anonim
!!!COM-rism: pe30004985
!!!CDT:
!!!CNT:
!!!OTL: Nro 9 Gloria
!!!PDT:
!!!AGN: Sacred
!!!SMS-siglum: PL-Kk
!!!SMS-shelfmark: Kk.I.382
!!!NIFC-rismID: 1001139153
!!!URL-scan: http://repozytorium.nifc.pl/skany/pl-kk-nut--i-382
!!!ONB-nifc: UWAGA: obsada: S (T 1), A (B 1), T 2, B 2; S (T 1): skan 0024; A (B 1): skan 0170-0171; T 2: skan 0095-0096; B 2: skan 0242
!!!SMS-variant:
!!!SMS-altvar:
**kern	**text	**kern	**text	**kern	**text	**kern	**text
*part4	*part4	*part3	*part3	*part2	*part2	*part1	*part1
*staff4	*staff4	*staff3	*staff3	*staff2	*staff2	*staff1	*staff1
*I"Basso II	*	*I"Tenore II	*	*I"Alto vel Basso I	*	*I"Soprano vel Tenore I.	*
*I'B 2	*	*I'T 2	*	*I'A (B 1)	*	*I'S (T 1)	*
*clefF4	*	*clefC4	*	*clefC3	*	*clefC1	*
*k[b-]	*	*k[b-]	*	*k[b-]	*	*k[b-]	*
*M4/4	*	*M4/4	*	*M4/4	*	*M4/4	*
*met(C.)	*	*met(C.)	*	*met(C.)	*	*met(C.)	*
=1	=1	=1	=1	=1	=1	=1	=1
*2\right	*	*2\right	*	*2\right	*	*2\right	*
!LO:TX:a:t=P:problem:all\right:global	!	!LO:TX:a:t=P:problem:all\right:global	!	!LO:TX:a:t=P:problem:all\right:global	!	!LO:TX:a:t=P:problem:all\right:global	!
!LO:TX:a:i:t=Gloria	!	!LO:TX:a:i:t=Gloria.	!	!LO:TX:a:i:t=Gloria	!	!LO:TX:a:i:t=Gloria	!
!LO:TX:a:t=P:problem:napis "Gloria" na pięciolinii przed kluczem	!	!LO:TX:a:t=P:problem:napis "Gloria." przed kluczem	!	!LO:TX:a:t=P:problem:napis "Gloria" przed kluczem	!	!LO:TX:a:t=P:problem:napis "Gloria" na pięciolinii przed kluczem	!
(>4F\	Et	2.A\	Et	2.c\	Et	(>4a\	Et
4A\)	.	.	.	.	.	4cc\)	.
(>4c\	in	.	.	.	.	(>4a\	in
4A\)	.	4A\	in	4c\	in	4cc\)	.
=2	=2	=2	=2	=2	=2	=2	=2
2.F\	ter-	2.B-\	ter-	2.d\	ter-	2.f/	ter-
4F\	-ra	4B-\	-ra	4d\	-ra	4f/	-ra
=3	=3	=3	=3	=3	=3	=3	=3
2C/	pax	2.G/	pax	[>2e\	pax	2.b-\	pax
(>4E\	ho-	.	.	8e\L]	.	.	.
.	.	.	.	8b-\J	.	.	.
4C/)	.	(<8B-/L	ho-	(>8g\L	ho-	4cc\	ho-
.	.	8G/J)	.	8e\J)	.	.	.
=4	=4	=4	=4	=4	=4	=4	=4
4.F\	-mi-	4.A\	-mi-	4.f\	-mi-	4.cc\	-mi-
8F\	-ni-	8A\	-ni-	8f\	-ni-	8cc\	-ni-
2F\	-bus	2A\	-bus	2f\	-bus	2cc\	-bus
=5	=5	=5	=5	=5	=5	=5	=5
4F\	bo-	4c\	bo-	4a\	bo-	4cc\	bo-
!LO:SIC:l:v:s=-nae	!	!LO:SIC:l:v:s=-nae	!	!LO:SIC:l:v:s=-nae	!	!LO:SIC:l:v:s=-nae	!
(>8E\L	-ne	(>8B-\L	-ne	(>8g\L	-ne	4cc\	-ne
8F\J)	.	8A\J)	.	8f\J)	.	.	.
!LO:LB:g=original	!	!	!	!	!	!	!
4F\	vo-	4c\	vo-	4a\	vo-	4cc\	vo-
(>8E\L	-lun-	(>8B-\L	-lun-	(>8g\L	-lun-	4cc\	-lun-
8F\J)	.	8A\J)	.	8f\J)	.	.	.
!	!	!LO:LB:g=original	!	!	!	!LO:LB:g=original	!
=6	=6	=6	=6	=6	=6	=6	=6
4c\	-ta-	4A/	-ta-	4f\	-ta-	4cc\	-ta-
4C/	-tis	4G/	-tis	4e\	-tis	4cc\	-tis
4r	.	4r	.	4r	.	2r	.
(>8E\L	lau-	(<8G/L	lau-	(>8e\L	Lau-	.	.
8F\J)	.	8A/J)	.	8f\J)	.	.	.
!	!	!	!	!LO:LB:g=original	!	!	!
=7	=7	=7	=7	=7	=7	=7	=7
!	!	!	!	!	!	!LO:TX:a:t=1.	!
(>8G\L	-da-	(<8B-/L	-da-	(>8g\L	-da-	1r	.
8F\	.	8A/	.	8f\	.	.	.
8E\	.	8G/	.	8e\	.	.	.
8F\J)	.	8A/J)	.	8f\J)	.	.	.
(>8A\L	-mus	(>8c\L	-mus	(>8a\L	mus	.	.
8G\J)	.	8B-\	.	8g\	.	.	.
(>8F\L	te	8A\	.	8f\	.	.	.
8E\J)	.	8G\J)	.	8e\J)	.	.	.
=8	=8	=8	=8	=8	=8	=8	=8
(>8F\L	be-	2A\	te	2f\	te	(>8a\L	be-
8G\J)	.	.	.	.	.	8b-\J)	.
(>8F\L	-ne-	.	.	.	.	(>8a\L	-ne-
8G\J)	.	.	.	.	.	8b-\J)	.
(>8B-\L	-di-	2r	.	2r	.	(>8dd\L	-di-
8A\J)	.	.	.	.	.	8cc\J)	.
8G\	-ci-	.	.	.	.	8b-\	-ci-
8F\	-mus	.	.	.	.	8a\	mus
=9	=9	=9	=9	=9	=9	=9	=9
4C/	te,	(<8G/L	a-	(>8e\L	a-	4g\	te
.	.	8A/J)	.	8f\J)	.	.	.
4r	.	(<8G/L	-do-	(>8e\L	-do-	4r	.
.	.	8A/J)	.	8f\J)	.	.	.
2r	.	(>8B-\L	-ra-	(>8g\L	-ra-	2r	.
.	.	8d\J)	.	8b-\J)	.	.	.
.	.	(>8c\L	-mus	(>8a\L	-mus	.	.
.	.	8B-\J)	.	8g\J)	.	.	.
!LO:LB:g=original	!	!	!	!	!	!	!
=10	=10	=10	=10	=10	=10	=10	=10
4r	.	4A\	te	4a\	te	4r	.
4FF/	glo-	4f\	glo-	4a\	glo-	4cc\	glo-
4AA/	-ri-	4f\	-ri-	4a\	-ri-	4cc\	-ri-
4C/	-fi-	4f\	-fi-	4a\	-fi-	4cc\	-fi-
!	!	!LO:LB:g=original	!	!	!	!	!
=11	=11	=11	=11	=11	=11	=11	=11
4F\	-ca-	4f\	-ca-	4a\	-ca-	[>1cc	-ca-
4E\	.	(>8e\L	.	(>8g\L	.	.	.
.	.	8d\J	.	8b-\J	.	.	.
4F\	.	8c\L	.	8a\L	.	.	.
.	.	8B-\	.	8g\	.	.	.
4BB-/	.	8A\	.	8f\	.	.	.
.	.	8G\J)	.	8e\J	.	.	.
!	!	!	!	!LO:LB:g=original	!	!	!
=12	=12	=12	=12	=12	=12	=12	=12
2C/	.	2A/	.	2f\)	.	2cc\]	.
2C/	-mus	2G/	-mus	2e\	-mus	2cc\	-mus
!	!	!	!	!	!	!LO:LB:g=original	!
=13	=13	=13	=13	=13	=13	=13	=13
2F\	te	2A/	te,	2f\	te	2cc\	te
!LO:TX:t=P:problem:brak podwójnej kreski taktowej	!	!LO:TX:t=P:problem:||	!	!LO:TX:t=P:problem:brak podwójnej kreski taktowej	!	!LO:TX:t=P:problem:||	!
2r	.	2r	.	2r	.	2r	.
=14	=14	=14||	=14||	=14	=14	==14	==14
4.F\	gra-	4.c\	Gra-	4.a\	Gra-	4.a\	gra-
8E\	-ti-	8B-\	-ti-	8g\	-ti-	8b-\	-ti-
2F\	-as	2A\	-as	2f\	-as	2cc\	-as
=15	=15	=15	=15	=15	=15	=15	=15
(>8F\L	a-	(>(>8c\L	a-	(>8a\L	a-	2cc\	a-
8E\	.	8B-\)	.	8g\)	.	.	.
8E\	.	(>8B-\	.	(>8g\	.	.	.
8F\J)	.	8A\J))	.	8f\J)	.	.	.
(>8F\L	-gi-	(>8c\L	-gi-	(>8a\L	-gi-	4cc\	-gi-
8E\J)	.	8B-\J)	.	8g\J)	.	.	.
(>8E\L	-mus	(>8B-\L	-mus	(>8g\L	-mus	4cc\	-mus
8F\J)	.	8A\J)	.	8f\J)	.	.	.
!LO:LB:g=original	!	!	!	!	!	!	!
=16	=16	=16	=16	=16	=16	=16	=16
4C/	ti-	4A/	ti-	4f\	ti-	4cc\	ti-
4C/	-bi	4G/	-bi	4e\	-bi	4cc\	-bi
!	!	!LO:LB:g=original	!	!	!	!	!
4C/	prop-	4c\	prop-	4e\	prop-	4cc\	prop-
4C/	-ter	4d\	-ter	4f\	-ter	4g\	-ter
=17	=17	=17	=17	=17	=17	=17	=17
(>8B-\L	ma-	(>8e\L	ma-	(>8g\L	ma-	4cc\	ma-
8A\J)	.	8d\J)	.	8f\J)	.	.	.
(>8G\L	-gnam	4e\	-gnam	4g\	-gnam	4cc\	-gnam
8F\J)	.	.	.	.	.	.	.
!	!	!	!	!LO:LB:g=original	!	!	!
4E\	glo-	(>8e\L	glo-	(>8g\L	glo-	4cc\	glo-
.	.	8g\J)	.	8b-\J)	.	.	.
8C/	-ri-	8f\	-ri-	8a\	-ri-	8cc\	-ri-
8C/	-am	8e\	-am	8g\	-am	8cc\	-am
!	!	!	!	!	!	!LO:LB:g=original	!
=18	=18	=18	=18	=18	=18	=18	=18
4F\	tu-	1c	tu-	(>2f\	tu-	1cc	tu-
8AA/L	.	.	.	.	.	.	.
8BB-/J	.	.	.	.	.	.	.
2C/	.	.	.	2e\)	.	.	.
=19	=19	=19	=19	=19	=19	=19	=19
2F\	-am	2c\	-am	2f\	-am	2cc\	-am
(>8A\L	Do-	(>8c\L	Do-	(>8a\L	Do-	(<8f/L	Do-
8B-\J)	.	8d\J)	.	8b-\J)	.	8e/J)	.
8A\	-mi-	8c\	-mi-	8a\	-mi-	8f/	-mi-
8G\	-ne	8B-\	-ne	8g\	-ne	8f/	-ne
!LO:LB:g=original	!	!	!	!	!	!	!
=20	=20	=20	=20	=20	=20	=20	=20
(>8A\L	De-	(>8c\L	De-	(>8a\L	De-	4f/	De-
8G\J)	.	8B-\J)	.	8g\J)	.	.	.
4F\	-us	4A\	-us	4f\	-us	4cc\	-us
!	!	!LO:LB:g=original	!	!	!	!	!
(>8G\L	rex	(>8B-\L	rex	(>8g\L	rex	4cc\	rex
8A\J)	.	8c\J)	.	8a\J)	.	.	.
!LO:SIC:l:v:s=coe-	!	!LO:SIC:l:v:s=coe-	!	!LO:SIC:l:v:s=coe-	!	!LO:SIC:l:v:s=coe-	!
(>8G\L	ce-	(>8B-\L	ce-	(>8g\L	ce-	4cc\	ce-
8F\J)	.	8A\J)	.	8f\J)	.	.	.
=21	=21	=21	=21	=21	=21	=21	=21
(>8G\L	-les-	(>8B-\L	-le-	(>8g\L	-le-	4cc\	-les-
8F\J)	.	8A\J)	.	8f\J)	.	.	.
4E\	-tis	4G/	-stis	4e\	-stis	4cc\	-tis
!	!	!	!	!LO:LB:g=original	!	!	!
(>8E\L	De-	(<8G/L	De-	(>8e\L	De-	4cc\	De-
8F\J)	.	8A/J)	.	8f\J)	.	.	.
4G\	-us	4B-\	-us	4g\	-us	4cc\	-us
=22	=22	=22	=22	=22	=22	=22	=22
(>8F\L	Pa-	(>8A\L	pa-	(>8f\L	pa-	4f/	pa-
8A\J)	.	8c\J)	.	8a\J)	.	.	.
8B-\	-ter	8d\	-ter	8b-\	-ter	8b-\	-ter
8G\	om-	8B-\	om-	8g\	om-	8dd\	om-
!	!	!	!	!	!	!LO:LB:g=original	!
4F\	-ni-	4A\	-ni-	4f\	-ni-	4cc\	-ni-
4E\	-po-	4G\	-po-	4e\	-po-	4cc\	-po-
!LO:LB:g=original	!	!	!	!	!	!	!
=23	=23	=23	=23	=23	=23	=23	=23
2F\	-tens	2A\	-tens	2f\	-tens	2cc\	-tens
(>8B-\L	Do-	(>8d\L	Do-	4f\	Do-	(>8dd\L	Do-
8d\J)	.	8f\J)	.	.	.	8ff\J)	.
8c\	-mi-	8e-X\	-mi-	8f\	-mi-	8ee-X\	-mi-
8B-\	-ne	8d\	-ne	8f\	-ne	8dd\	-ne
!	!	!LO:LB:g=original	!	!	!	!	!
=24	=24	=24	=24	=24	=24	=24	=24
4A\	fi-	4c\	fi-	4f\	fi-	4cc\	fi-
4A\	-li	4c\	-li	4f\	-li	4cc\	-li
(>8A\L	u-	(>8c\L	u-	4f\	u-	(>8cc\L	u-
8B-\J)	.	8d\J)	.	.	.	8dd\J)	.
(>8c\L	-ni-	(>8e-X\L	-ni-	4f\	-ni-	(>8ee-X\L	-ni-
8A\J)	.	8c\J)	.	.	.	8cc\J)	.
!	!	!	!	!LO:LB:g=original	!	!	!
=25	=25	=25	=25	=25	=25	=25	=25
(>8B-\L	-ge-	(>8d\L	-ge-	4.f\	-ge-	(>8dd\L	-ge-
8c\J)	.	8e-X\J)	.	.	.	8ee-X\J)	.
(>8B-\L	-ni-	(>8d\L	-ni-	.	.	(>8dd\L	-ni-
8F\J)	.	8e-\J)	.	8e-X\	-ni-	8ee-\J)	.
4BB-/	-te	2f\	-te	4d\	-te	2ff\	-te
4r	.	.	.	4r	.	.	.
=26	=26	=26	=26	=26	=26	=26	=26
2E-X\	Je-	2A\	Je-	2g\	Je-	2cc\	Je-
2D\	-su	2B-\	-su	2f\	-su	2b-\	-su
!LO:LB:g=original	!	!	!	!	!	!LO:LB:g=original	!
=27	=27	=27	=27	=27	=27	=27	=27
(>8D\L	Chri-	(>8d\L	Chri-	(>8f\L	Chri-	1f	Chri-
8E-X\J	.	8c\J	.	8e-X\J)	.	.	.
2F\	.	2B-\	.	2d\	.	.	.
4FF/)	.	4A\)	.	4c\	.	.	.
=28	=28	=28	=28	=28	=28	=28	=28
2BB-/	-ste	2B-\	-ste	2d\	-ste	2f/	-ste
4BBn/	Do-	4G/	Do-	4d\	Do-	4f/	Do-
8BB/	-mi-	8G/	-mi-	8d\	-mi-	8f/	-mi-
8BB/	-ne	8G/	-ne	8d\	-ne	8f/	-ne
!	!	!LO:LB:g=original	!	!	!	!	!
=29	=29	=29	=29	=29	=29	=29	=29
4C/	De-	4G/	De-	4e-X\	De-	4e-X/	De-
4C/	-us	4G/	-us	4e-\	-us	4e-/	-us
4C#X/	A-	4A\	a-	4en\	a-	4g\	A-
4C#/	-gnus	4A\	-gnus	4e\	-gnus	4g\	-gnus
!	!	!	!	!LO:LB:g=original	!	!	!
=30	=30	=30	=30	=30	=30	=30	=30
4D\	De-	4A\	De-	4f\	De-	4f/	De-
4D\	-i	4A\	-i	4f\	-i	4f/	-i
4F\	Fi-	4d\	fi-	4a\	fi-	4f/	fi-
8E\	-li-	8c#X\	-li-	8g\	-li-	8g\	-li-
8D\	-us	8d\	-us	8f\	-us	8a\	-us
!LO:LB:g=original	!	!	!	!	!	!	!
=31	=31	=31	=31	=31	=31	=31	=31
2A\	pa-	(>2d\	pa-	(>2f\	pa-	1a	pa-
2AA/	.	2c#X\)	.	2e\)	.	.	.
=32	=32	=32	=32	=32	=32	=32	=32
2D\	-tris,	2d\	-tris.	2f\	-tris	2a\	-tris
!	!	!LO:TX:a:t=P:problem:napis na pięciolinii za kreską	!	!	!	!	!
!LO:TX:i:a:t=solo.	!	!LO:TX:i:a:t=V[olti]&colon; S[ubito]&colon;	!	!	!	!	!
4r	.	2r	.	2r	.	2r	.
4A\	qui	.	.	.	.	.	.
!	!	!LO:PB:g=original	!	!	!	!LO:LB:g=original	!
=33	=33	=33	=33	=33	=33	=33	=33
(>4d\	tol-	2r	.	2r	.	2r	.
4A\)	.	.	.	.	.	.	.
(8G\L	-lis	4r	.	4r	.	4r	.
8F\J)	.	.	.	.	.	.	.
(8E\L	pec-	4d\	pec-	4f\	pec-	4a\	pec-
8D\J)	.	.	.	.	.	.	.
=34	=34	=34	=34	=34	=34	=34	=34
4C#X/	-ca-	4e\	-ca-	4g\	-ca-	4b-\	-ca-
4D/	-ta	4d\	-ta	4f\	-ta	4a\	-ta
4r	.	4r	.	4r	.	4r	.
4D\	pec-	4d\	pec-	4f\	pec-	4a\	pec-
=35	=35	=35	=35	=35	=35	=35	=35
4B-X\	ca-	4d\	-ca-	4f\	-ca-	4g\	-ca-
4B-\	-ta	4d\	-ta	4f\	-ta	4g\	-ta
2G#X\	mun-	2d\	mun-	2f\	mun-	2bn\	mun-
!	!	!	!	!LO:LB:g=original	!	!	!
=36	=36	=36	=36	=36	=36	=36	=36
2A\	-di,	2c#X\	-di,	2e\	-di	2a\	-di
2r	.	2r	.	2r	.	2r	.
!LO:PB:g=original	!	!	!	!	!	!	!
=37	=37	=37	=37	=37	=37	=37	=37
2A\	mi-	2c#X\	mi-	2a\	mi-	2ee\	mi-
2B-X\	-se-	2d\	-se-	2g\	-se-	2dd\	-se-
=38	=38	=38	=38	=38	=38	=38	=38
2c#X\	-re-	2e\	-re-	2g\	-re-	2a\	-re-
2d\	-re	2d\	-re	2f\	-re	2a\	-re
=39	=39	=39	=39	=39	=39	=39	=39
4B-\	no-	(>2d\	no-	(>4g\	no-	(>2b-\	no-
4G\	.	.	.	4b-\	.	.	.
4A\	.	4d\	.	4a\	.	2a\)	.
4AA/	.	4e\)	.	4g\)	.	.	.
!	!	!LO:LB:g=original	!	!	!	!	!
=40	=40	=40	=40	=40	=40	=40	=40
2D\	-bis	2d\	-bis	2f\	bis	2a\	-bis
!LO:TX:a:i:t=solo	!	!	!	!	!	!	!
4r	.	2r	.	2r	.	2r	.
4A\	qui	.	.	.	.	.	.
!	!	!	!	!	!	!LO:LB:g=original	!
=41	=41	=41	=41	=41	=41	=41	=41
(>4d\	tol-	2r	.	2r	.	2r	.
4A\)	.	.	.	.	.	.	.
(>8G\L	-lis	4r	.	4r	.	4r	.
8F\J)	.	.	.	.	.	.	.
(>8E\L	pec-	4d\	pec-	4f\	pec-	4a\	pec-
8D\J)	.	.	.	.	.	.	.
=42	=42	=42	=42	=42	=42	=42	=42
4C#X/	-ca-	4e\	-ca-	4g\	-ca-	4b-\	-ca-
4D/	-ta	4d\	-ta	4f\	-ta	4a\	-ta
4r	.	4r	.	4r	.	4r	.
4D\	pec-	4d\	pe[c]-	4f\	pec-	4a\	pec-
!LO:LB:g=original	!	!	!	!	!	!	!
=43	=43	=43	=43	=43	=43	=43	=43
4E\	-ca-	4cn\	-ca-	4g\	-ca-	4b-\	-ca-
4F\	-ta	4c\	-ta	4a\	-ta	4a\	-ta
(>4G\	mun-	2e\	mun-	2b-\	mun-	2cc\	mun-
4Cn/)	.	.	.	.	.	.	.
=44	=44	=44	=44	=44	=44	=44	=44
2.F\	-di,	1c	-di	2a\	-di.	2.cc\	-di
.	.	.	.	2r	.	.	.
4r	.	.	.	.	.	4r	.
!	!	!	!	!LO:LB:g=original	!	!	!
==45	==45	==45	==45	==45	==45	==45	==45
*k[b-]	*	*	*	*	*	*	*
*M3/4	*	*M3/4	*	*M3/4	*	*M3/4	*
!LO:TX:a:t=P:problem:bemol przed kreską taktową	!	!	!	!	!	!	!
(>8F\L	Sus-	(>8c\L	Su-	(>8f\L	Sus-	(>8a-X\L	Su-
8G\J)	.	8d-X\J)	.	8e\J)	.	8b-\J)	.
(>8F\L	-ci-	(>8c\L	-sci-	(>8f\L	-ci-	(>8a-\L	-sci-
8G\J)	.	8d-\J)	.	8e\J)	.	8b-\J)	.
4F\	-pe	4c\	-pe,	4f\	-pe	4a-\	-pe
!	!	!LO:LB:g=original	!	!	!	!	!
=46	=46	=46	=46	=46	=46	=46	=46
(>8En\L	Sus-	(>8B-\L	su-	(>8e\L	sus-	(>8g\L	su-
8F\J)	.	8c\J)	.	8f\J)	.	8a-X\J)	.
(>8E\L	-ci-	(>8B-\L	-sci-	(>8e\L	-ci-	(>8g\L	-sci-
8F\J)	.	8c\J)	.	8f\J)	.	8a-\J)	.
4E\	-pe	4B-\	-pe	4e\	-pe	4g\	-pe
!	!	!	!	!	!	!LO:LB:g=original	!
=47	=47	=47	=47	=47	=47	=47	=47
8F\	de-	8c\	de-	8f\	de-	8a-X\	de-
8F\	-pre-	8c\	-pre-	8f\	-pre-	8a-\	-pre-
(>8F\L	-ca-	4.c\	-ca-	4f\	-ca-	(>8a-\L	-ca-
8A-X\J)	.	.	.	.	.	8cc\J)	.
(>8G\L	-ti-	.	.	(>8e\L	-ti-	(>8b-\L	-ti-
8F\J)	.	8c\	-ti-	8f\J)	.	8a-\J)	.
!LO:LB:g=original	!	!	!	!	!	!	!
=48	=48	=48	=48	=48	=48	=48	=48
(>8E\L	-o-	2c\	-o-	2e\	-o-	8g\L	-o-
8C\	.	.	.	.	.	8e\	.
8E\	.	.	.	.	.	8g\	.
8G\J)	.	.	.	.	.	8cc\J	.
(>8c\L	-nem	4c\	-nem	4e\	-nem	4g\	-nem
8B-X\J)	.	.	.	.	.	.	.
=49	=49	=49	=49	=49	=49	=49	=49
(>4A-X\	no-	2.c\	no-	(>4f\	no-	(>4cc\	no-
4G\	.	.	.	4e\	.	4b-\	.
4F\)	.	.	.	4f\)	.	4a-X\)	.
=50	=50	=50	=50	=50	=50	=50	=50
(>4c\	-stram	2c\	-stram	2e\	-stram	2g\	-stram
4C/)	.	.	.	.	.	.	.
8r	.	8r	.	8r	.	4r	.
8C/	qui	(>16c\LL	qui	(>16an\LL	qui	.	.
.	.	16B-\JJ)	.	16g\JJ)	.	.	.
!	!	!	!	!LO:LB:g=original	!	!	!
=51	=51	=51	=51	=51	=51	=51	=51
4F\	se-	4An\	se-	4f\	se-	4cc\	qui
4F\	-des	4A\	-des	4f\	-des	4cc\	se-
4E\	ad	4B-\	ad	4g\	ad	8cc\	-des
.	.	.	.	.	.	8cc\	ad
!	!	!LO:LB:g=original	!	!	!	!LO:LB:g=original	!
=52	=52	=52	=52	=52	=52	=52	=52
4.F\	dex-	4.c\	dex-	4.a\	dex-	4.ff\	dex-
8F\	-te-	8d\	-te-	8b-X\	-te-	8ff\	-te-
4F\	-ram	4c\	-ram	4a\	-ram	4ff\	-ram
=53	=53	=53	=53	=53	=53	=53	=53
(>4F\	Pa-	(>4c\	pa-	(>4a\	pa-	(>4ff\	pa-
4B-\	.	4B-\	.	4g\	.	2dd\)	.
4Bn\)	.	4A\)	.	4f\)	.	.	.
!LO:LB:g=original	!	!	!	!	!	!	!
=54	=54	=54	=54	=54	=54	=54	=54
2c\	-tris	2G/	-tris	2e\	-tris,	2cc\	-tris
!	!	!	!	!LO:TX:a:t=P:problem:napis na pięciolinii za kreską	!	!	!
!	!	!	!	!LO:TX:i:a:t=V[olti]&colon; S[ubito]&colon;	!	!	!
4r	.	4r	.	4r	.	4r	.
!	!	!	!	!LO:PB:g=original	!	!	!
=55	=55	=55	=55	=55	=55	=55	=55
2c#X\	mi-	2e\	mi-	2g\	mi-	2b-\	mi-
4c#\	-se-	4e\	-se-	4g\	-se-	4b-\	-se-
=56	=56	=56	=56	=56	=56	=56	=56
(>4d\	-re-	(>4d\	-re-	(>4a\	-re-	2a\	-re-
4A\)	.	4c#X\)	.	4g\)	.	.	.
4D\	-re	4A\	-re	4f\	-re	4dd\	-re
=57	=57	=57	=57	=57	=57	=57	=57
(>4C#X/	mi-	2A\	mi-	(>4e\	mi-	(>4ee\	mi-
4D/)	.	.	.	4f\)	.	4dd\)	.
4E\	-se-	4c#X\	-se-	4g\	-se-	4a\	-se-
=58	=58	=58	=58	=58	=58	=58	=58
(>4D\	-re-	(>4A\	-re-	(>4f\	re-	(>4dd\	-re-
4E\)	.	4c#X\)	.	4g\)	.	4a\)	.
4F\	-re	4d\	-re	4a\	-re	4a\	-re
!	!	!LO:LB:g=original	!	!	!	!LO:LB:g=original	!
=59	=59	=59	=59	=59	=59	=59	=59
(>4G\	no-	(>4e\	no-	(>4b-\	no-	(>4cc#X\	no-
4A\	.	4f\	.	4a\	.	4dd\	.
4AA/)	.	4e\)	.	4g\)	.	4a\)	.
=60	=60	=60	=60	=60	=60	=60	=60
2.D\	-bis.	2.d\	-bis.	2.f\	-bis.	2.a\	-bis
!LO:LB:g=original	!	!	!	!LO:LB:g=original	!	!	!
==61	==61	==61	==61	==61	==61	==61	==61
*k[b-]	*	*k[b-]	*	*k[b-]	*	*k[b-]	*
*M4/4	*	*M4/4	*	*M4/4	*	*M4/4	*
*met(C.)	*	*met(C.)	*	*met(C.)	*	*met(C.)	*
4.F\	Quo-	4.A\	Quo-	4.f\	Quo-	4.cc\	Quo-
8E\	-ni-	8B-\	-ni-	8g\	-ni-	8b-\	-ni-
4F\	-am	4c\	-am	4a\	-am	4a\	-am
4F\	tu	4c\	tu	4a\	tu	4a\	tu
=62	=62	=62	=62	=62	=62	=62	=62
(>4F\	so-	(>(>8c\L	so-	(>8a\L	so-	2cc\	so-
.	.	8B-\)	.	8g\)	.	.	.
4C/)	.	(>8B-\	.	(>8g\	.	.	.
.	.	8A\J))	.	8f\J)	.	.	.
4F\	-lus	4A\	-lus	4f\	-lus	4cc\	-lus
4F\	tu	4c\	tu	4a\	tu	4r	.
=63	=63	=63	=63	=63	=63	=63	=63
!	!	!	!	!	!	!LO:TX:b:t=1.	!
2F\	so-	(>4c\	so-	4a\	so-	1r	.
.	.	8d\L	.	(>8b-\L	-lus	.	.
.	.	8c\J)	.	8a\J)	.	.	.
(>4E\	-lus	(>8c\L	-lus	(>8a\L	so-	.	.
.	.	[>8B-\)	.	8g\J)	.	.	.
4F\)	.	(>8B-\]	.	(>8g\L	-lus	.	.
.	.	8A\J)	.	8f\J)	.	.	.
!	!	!LO:LB:g=original	!	!	!	!	!
=64	=64	=64	=64	=64	=64	=64	=64
4c\	san-	4A/	san-	4f\	san-	4cc\	san-
4C/	-ctus	4G/	-ctus	4e\	-ctus	4cc\	-ctus
2r	.	4r	.	4r	.	2r	.
.	.	(<8G/L	tu	(>8e\L	tu	.	.
.	.	8A/J)	.	8f\J)	.	.	.
!	!	!	!	!LO:LB:g=original	!	!LO:LB:g=original	!
=65	=65	=65	=65	=65	=65	=65	=65
2r	.	(<8B-/L	so-	(>8g\L	so-	2r	.
.	.	8A/J)	.	8f\J)	.	.	.
.	.	(<8G/L	-lus	(>8e\L	-lus	.	.
.	.	8A/J)	.	8f\J)	.	.	.
4r	.	(>8B-\L	Do-	(>8g\L	Do-	4r	.
.	.	8A\J)	.	8f\J)	.	.	.
4C/	tu	(>8B-\L	-mi-	(>8g\L	-mi-	4g\	tu
.	.	8G\J)	.	8e\J)	.	.	.
!LO:LB:g=original	!	!	!	!	!	!	!
=66	=66	=66	=66	=66	=66	=66	=66
8F\L	so-	2A\	-nus	2f\	-nus	(>8a\L	so-
8E\	.	.	.	.	.	8g\	.
8F\	.	.	.	.	.	8a\	.
8E\J	.	.	.	.	.	8g\J)	.
(>8F\L	-lus	4r	.	4r	.	(>8a\L	-lus
8A\J)	.	.	.	.	.	8cc\J)	.
(>8G\L	al-	4c\	al-	(>8e\L	al-	(>8b-\L	al-
8F\J)	.	.	.	8f\J)	.	8a\J)	.
=67	=67	=67	=67	=67	=67	=67	=67
4.E\	-tis-	4.c\	-tis-	4.g\	-tis-	4.g\	-tis-
8D\	-si-	8c\	-si-	8f\	-si-	8g\	-si-
2C/	-mus	2c\	-mus	2e\	-mus	2b-\	-mus
=68	=68	=68	=68	=68	=68	=68	=68
4F\	Je-	(>8A\L	Je-	(>8f\L	Je-	4cc\	Je-
.	.	8c\J)	.	8a\J)	.	.	.
4B-\	-su	(>8d\L	su	(>8b-\L	-su	4dd\	-su
.	.	8B-\J)	.	8g\J)	.	.	.
!	!	!LO:LB:g=original	!	!	!	!	!
(>4c\	Chri-	(<4A/	Chri-	(>4f\	Chri-	2cc\	Chri-
4C/)	.	4G/)	.	4e\)	.	.	.
=69	=69	=69	=69	=69	=69	=69	=69
2F\	-ste	2A/	-ste	2f\	-ste	2cc\	-ste
4r	.	4r	.	4r	.	4r	.
!	!	!	!	!	!	!LO:TX:a:t=P:problem:napis na pięciolinii za kreską	!
!	!	!	!	!	!	!LO:TX:i:a:t=V[olti]&colon; S[ubito]&colon;	!
4C/	Cum	4G/	cum	4e\	Cum	4cc\	cum
!	!	!	!	!LO:LB:g=original	!	!LO:PB:g=original	!
=70	=70	=70	=70	=70	=70	=70	=70
(>4F\	San-	(>4A\	san-	(>4f\	San-	2.cc\	san-
4G\)	.	4B-\)	.	4e\)	.	.	.
!LO:LB:g=original	!	!	!	!	!	!	!
8B-\L	-cto	(>8d\L	-cto	2f\	-cto	.	.
8A\	.	8c\	.	.	.	.	.
8G\	.	8B-\	.	.	.	4cc\	-cto
8F\J	.	8A\J)	.	.	.	.	.
=71	=71	=71	=71	=71	=71	=71	=71
4.C/	Spi-	4.G/	spi-	4.e\	spi-	4.cc\	spi-
8C/	-ri-	8G/	-ri-	8e\	-ri-	8cc\	-ri-
4C/	-tu	4G/	-tu	4e\	-tu	4cc\	-tu
4C/	in	4G/	in	4e\	in	4cc\	in
=72	=72	=72	=72	=72	=72	=72	=72
4C/	glo-	4G/	glo-	4e\	glo-	4cc\	glo-
8E\	-ri-	8G/	-ri-	8e\	-ri-	8cc\	-ri-
8G\	-a	8G/	-a	8e\	-a	8cc\	-a
(>8B-\L	De-	4G/	De-	4e\	De-	4cc\	De-
8G\J)	.	.	.	.	.	.	.
(>8E\L	-i	4G/	-i	4e\	-i	4cc\	-i
8C\J)	.	.	.	.	.	.	.
!	!	!LO:LB:g=original	!	!	!	!	!
=73	=73	=73	=73	=73	=73	=73	=73
4F\	pa-	4A\	pa-	4f\	pa-	4cc\	pa-
4F\	-tris	4A\	-tris	4f\	-tris	4cc\	-tris
2r	.	2r	.	2r	.	2r	.
!LO:LB:g=original	!	!	!	!	!	!LO:LB:g=original	!
=74	=74	=74	=74	=74	=74	=74	=74
(>4E\	A-	2B-\	a-	(>4g\	A-	2cc\	A-
4C\)	.	.	.	4e\)	.	.	.
2F\	-men	2A\	-men	2f\	-men	2cc\	-men
!	!	!	!	!LO:LB:g=original	!	!	!
=75	=75	=75	=75	=75	=75	=75	=75
(>4B-\	a-	(>4G\	a-	(>4f\	a-	2cc\	a-
4G\)	.	4B-\)	.	4g\)	.	.	.
(>4F\	-men	(>4A\	-men	(>4a\	-men	2cc\	-men
4A\)	.	4c\)	.	4f\)	.	.	.
=76	=76	=76	=76	=76	=76	=76	=76
(>4B-\	A-	(>2d\	A-	(>2g\	A-	(>2b-\	a-
4G\	.	.	.	.	.	.	.
4c\	.	2c\)	.	2e\)	.	2g\)	.
4C/)	.	.	.	.	.	.	.
=77	=77	=77	=77	=77	=77	=77	=77
1F	-men.	1c	-men.	1f	-men.	1a	-men.
==	==	==	==	==	==	==	==
*-	*-	*-	*-	*-	*-	*-	*-
!!!system-decoration: [(s1,s2,s3,s4)]
!!!RDF**kern: > = above
!!!RDF**kern: < = below
!!!EED: Mateusz Mrugas
!!!EST: 2021-02-05
!!!ENC: Krzysztof Stępień
!!!END: 2021-01-29
